local/share/icons/dracula-icons-main/22/devices/drive-harddisk-root.svg

<svg width="22" height="22" version="1.1" viewBox="0 0 22 22" xmlns="http://www.w3.org/2000/svg">
 <defs>
  <style id="current-color-scheme" type="text/css">.ColorScheme-Text { color:#727272; } .ColorScheme-Highlight { color:#5294e2; }</style>
 </defs>
 <path d="m6 4c-1 0-1 1-1 1v12s0 1 1 1h10s1 0 1-1v-12s0-1-1-1zm5 2c5.3333 0 5.3333 8 0 8h-4v-4c0-2.2091 1.7909-4 4-4zm0 1-3 6h1l3-6zm0 5v1h2v-1z" class="ColorScheme-Text" fill="currentColor"/>
</svg>

<?xml version="1.0" encoding="UTF-8"?>
<svg xmlns="http://www.w3.org/2000/svg" xmlns:xlink="http://www.w3.org/1999/xlink" width="22" height="22" viewBox="0 0 22 22">
<path fill-rule="nonzero" fill="rgb(44.705882%, 44.705882%, 44.705882%)" fill-opacity="1" d="M 6 4 C 5 4 5 5 5 5 L 5 17 C 5 17 5 18 6 18 L 16 18 C 16 18 17 18 17 17 L 17 5 C 17 5 17 4 16 4 Z M 11 6 C 16.332031 6 16.332031 14 11 14 L 7 14 L 7 10 C 7 7.789062 8.789062 6 11 6 Z M 11 7 L 8 13 L 9 13 L 12 7 Z M 11 12 L 11 13 L 13 13 L 13 12 Z M 11 12 "/>
</svg>
